X: 1
T: the Drummer
R: Reel
B: The Athole Collection (1881)
M: C|
L: 1/8
K: Am
B | "Am"ABcA E2E^F | "G"GABc dBGB | "Am"cABG E2Eg | "E7"edcB "Am"A2A :|
B | "C"c2ce "G7"d2de | "C"c2ce "G7"dBGB | "C"c2ce "Dm"d2df | "E7"edcB "Am"A2A ||
B | "C"cGce "G7"dAde | "C"cGce "G7"dBG{A}B | "C"cGce "Dm"dAdf | "E7"edcB "Am"A2A |]
